X:243
T: EY MAI LIEBE MALCHEN HIE
N: Z0242
O: Europa, Mitteleuropa, Deutschland, Kuhlaendchen
N: "Die Flachsbrecherinnen singen einander nach der Reihe zu. "
R: Schiffer -, Handwerker - Lied
M: 3/4
L: 1/16
K: E
 | B2B2B4e4 | =d2d2d4
B4 | A2B2A2B2=c2A2 | B8z2
E2 | E2F2=G2G2F2F2 | =G2E2=D2D2G2
G2 | FF=GGAAAAF2D2 | E8z4

